X: 9
T:Country Gardens (Bampton)
M:4/4
L:1/8
Q:1/4=150
O:England; Oxfordshire; Bampton.
B:Lionel Bacon, A Handbook of Morris Dances
Z:http://www.themorrisring.org/music/handbook-morris-dances
P:A(BC3)3A2
K:G
P:A
g2gf e2e2 |dedc B2Bc |d2G2 A2c2|B3A  G4 ||
P:B
|:G2c2 c2e2 |dedc B2Bc |d2G2 A2c2|B3A  G4 :|
P:C
g2g2 e<fd2|g2g2 e<fd2|g2gf e2a2|f2e2 d2Bc|
d2gf e2e2 |dedc B2Bc |d2G2 A2c2|B3A  G4  ||

